X: 1
T: Corrine Corrina
C: Mitchell Parish, J. Mayo Williams, Bo Chatman (1929)
M: 4/4
L: 1/8
Q:140
K: Bb
z2 D2E2=E2 |: "Bb" F3 d-d4 | z ^c dc d2 =c2 | B8- | "Bb7" B2 B2 B2 B2 |
w: Cor-rine Cor-rin-a, _ Oh where ya' been so long? _ Cor-rine Cor-
"Eb" B3 B-B4 | z B AB A2 G2| "Bb" F8- | F2 d2 d2 d2 |
w:rin-a, _ Oh where ya' been so long? _ Ain't had no
"F7" d3 c-c4 | z2 _d2 c B2 B-|"Bb"B8-|B2 D2E2=E2 :|
w: lov-in' _ since you've been gone _